X:1
T:CHORUS OF THE FAIRIES
T:CHORUS OF THE FAIRIES
T:from IOLANTHE
T:Gilbert and Sullivan
T:transcribed/arranged by sonatina_3 on musescore
C:Gilbert and Sullivan
%%score [ 1 2 3 ] { ( 4 6 ) | ( 5 7 ) }
L:1/8
M:4/4
K:Bb
V:1 treble nm="Soprano" snm="S."
V:2 treble nm="Alto" snm="A."
V:3 bass nm="Bass" snm="B."
V:4 treble nm="Piano"
V:6 treble 
V:5 bass 
V:7 bass 
V:1
 z8 | z8 | z8 | z8 | z8 | z8 | z8 | z8 | z4 d z d z | d z B z d z d z | d z B z f z f z | %11
w: ||||||||Trip- ping|hi- ther, trip- ping|thi- ther, No- bo-|
 (fe) d2 (cd) e2 | d z B z z4 | z8 | z4 c z f z | c z A z G z B z | (AGAB) c z f z | %17
w: dy _ knows why _ or|whi- ther;||We must|dance and we must|sing _ _ _ round a-|
 c z A z G z B z | A z Bc dcBd | cBBc dcBd | cB e4 d2 | c2 G2 G2 G2 | G4 (G^F)(GA) | B2 F2 F2 F2 | %24
w: bout our fai- ry|ring, Trip- ping hi- ther, trip- ping|thi- ther, no- bo- dy knows why or|whi- ther, We must|dance and we must|sing, Round _ a- *|bout our fai- ry|
 F z Bc dcBd | cBBc dcBd | cB e4 d2 | c2 G2 G2 G2 | G4 (G^F)(GA) | B4 F4 | F4 F4 | F6 z2 | z8 | %33
w: ring, Trip- ping hi- ther, trip- ping|thi- ther, no- bo- dy knows why or|whi- ther, We must|dance and we must|sing, Round _ a- *|bout our|fai- ry|ring.||
 z8 | z8 | z8 | z8 | z8 | z8 | z8 | z8 | z8 | z8 | z8 | z8 | z8 | z8 | z8 | z8 | z8 | z8 | z8 | %52
w: |||||||||||||||||||
 d3 d dddd | c2 F2 B3 B | A4 F4 | z2 Bc dcBd | cBBc dcBd | cB e4 d2 | c2 G2 G2 G2 | G4 (G^F)(GA) | %60
w: No, we have- n't a- ny|no- tion, a- ny|no- tion!|Trip- ping hi- ther, trip- ping|thi- ther, no- bo- dy knows why or|whi- ther, We must|dance and we must|sing, Round _ a- *|
 B4 F4 | F4 F4 | F4 B3 B | A2 A2 B2 A2 | G2 z2 G2 G2 | F2 F2 G3 F | E4 z4 | E2 E2 E2 =E2 | %68
w: bout our|fai- ry|ring, If you|ask us how we|live, Lov- ers|all es- sen- tials|give,|We can ride on|
 =E2 F2 B,4 | F2 =E2 F2 ^F2 | ^F2 G2 E4 | E2 _A2 G2 F2 | G3 _A B4 | E2 _A2 G2 F2 | G3 _A B4 | %75
w: lov- ers' sighs,|Warm our- selves in|lov- ers' eyes,|Bathe our- selves in|lov- ers' tears,|Clothe our- selves in|lov- ers' fears,|
 G2 G2 G2 G2 | G2 c2 G4 | F2 F2 F2 F2 | F2 B2 F4 | =E2 E2 B2 E2 | =E2 E2 A2 E2 | D2 ^F2 A2 d2 | %82
w: Arm our- selves with|lov- ers' darts,|Hide our- selves in|lov- ers' hearts,|When you know us|you'll dis- co- ver|That we al- most|
 d4 ^c4 | d2 D2 A2 d2 | d4 ^c4 | d2 D2 z4 | z2 Bc dcBd | cBBc dcBd | cB e4 d2 | c2 G2 G2 G2 | %90
w: live on|lov- er, Yes we|live on|lov- er|Trip- ping hi- ther, trip- ping|thi- ther, no- bo- dy knows why or|whi- ther, We must|dance and we must|
 G4 (G^F)(GA) | B4 F4 | F4 F4 | F4 z4 | z4!ff! D z F z | B z A z c z B z | d z B z F z D z | %97
w: sing, Round _ a- *|bout our|fai- ry|ring,|We are|dain- ty lit- tle|fai- ries ev- er|
 F z C z F z C z | D4 F4 | z4 D z F z | B z A z c z B z | d z B z F z D z | F z C z F z A z | %103
w: sing- ing, ev- er|danc- ing,|We in-|dulge in our va-|ga- ries In a|fash- ion most en-|
 B4 B4- | B2!>(! (A2 G2) F2 | (F2 B2) B4- | B2 (A2 G2) F2!>)! | B4 B4 | z8 | z2!p! FF FFFF | %110
w: tranc- ing,|_ most _ en-|tranc- * ing,|_ most _ en-|tranc- ing||Trip- ping hi- ther, trip- ping|
 FFFF FFFF | FB, z2 z4 | z8 | z8 | z8 | z8 | z8 |] %117
w: thi- ther, no- bo- dy knows why or|whi- ther.||||||
V:2
 z8 | z8 | z8 | z8 | z8 | z8 | z8 | z8 | z4 B z B z | B z D z B z B z | B z D z d z d z | %11
w: ||||||||Trip- ping|hi- ther, trip- ping|thi- ther, No- bo-|
 (dc) B2 (AB) c2 | B z B z z4 | z8 | z4 A z A z | A z F z =E z F z | (F=EFG) A z A z | %17
w: dy _ knows why _ or|whi- ther;||We must|dance and we must|sing _ _ _ round a-|
 A z F z =E z G z | F z DD DDDD | EEDD DDDD | EE G4 F2 | E2 D2 C2 G2 | G4 ((G^F))((GA)) | %23
w: bout our fai- ry|ring, Trip- ping hi- ther, trip- ping|thi- ther, no- bo- dy knows why or|whi- ther, We must|dance and we must|sing, Round _ a- *|
 B2 F2 F2 F2 | F z DD DDDD | EEDD DDDD | EE G4 F2 | E2 D2 C2 G2 | G4 ((G^F))((GA)) | B4 F4 | %30
w: bout our fai- ry|ring, Trip- ping hi- ther, trip- ping|thi- ther, no- bo- dy knows why or|whi- ther, We must|dance and we must|sing, Round _ a- *|bout our|
 F4 F4 | F6 z2 | z8 | z8 | z8 | z8 | z8 | z8 | z8 | z8 | z8 | z8 | z8 | z8 | z8 | z8 | z8 | z8 | %48
w: fai- ry|ring.|||||||||||||||||
 z8 | z8 | z8 | z8 | B3 B BBBB | A2 F2 =E3 E | F4 F4 | z2 DD DDDD | EEDD DDDD | EE G4 F2 | %58
w: ||||No, we have- n't a- ny|no- tion, a- ny|no- tion!|Trip- ping hi- ther, trip- ping|thi- ther, no- bo- dy knows why or|whi- ther, We must|
 E2 D2 C2 G2 | G4 (((G^F)))(((GA))) | B4 F4 | F4 F4 | F4 B3 B | A2 A2 B2 A2 | G2 z2 G2 G2 | %65
w: dance and we must|sing, Round _ a- *|bout our|fai- ry|ring. If you|ask us how we|live, Lov- ers|
 F2 F2 G3 F | E4 z4 | E2 E2 E2 =E2 | =E2 F2 B,4 | F2 =E2 F2 ^F2 | ^F2 G2 E4 | E2 _A2 G2 F2 | %72
w: all es- sen- tials|give,|We can ride on|lov- ers' sighs,|Warm our- selves in|lov- ers' eyes,|Bathe our- selves in|
 G3 _A B4 | E2 _A2 G2 F2 | G3 _A B4 | G2 G2 G2 G2 | G2 c2 G4 | F2 F2 F2 F2 | F2 B2 F4 | %79
w: lov- ers' tears,|Clothe our- selves in|lov- ers' fears,|Arm our- selves with|lov- ers' darts,|Hide our- selves in|lov- ers' hearts,|
 =E2 E2 B2 E2 | =E2 E2 A2 E2 | D2 ^F2 A2 d2 | d4 ^c4 | d2 D2 ^F2 F2 | =E4 E4 | D2 D2 z4 | %86
w: When you know us|you'll dis- co- ver|That we al- most|live on|lov- er, Yes we|live on|lov- er|
 z2 DD DDDD | EEDD DDDD | EE G4 F2 | E2 D2 C2 G2 | G4 (((G^F)))(((GA))) | B4 F4 | F4 F4 | F4 z4 | %94
w: Trip- ping hi- ther, trip- ping|thi- ther, no- bo- dy knows why or|whi- ther, We must|dance and we must|sing, Round _ a- *|bout our|fai- ry|ring.|
 z4!ff! D z F z | B z A z c z B z | d z B z F z D z | F z C z F z C z | D4 F4 | z4 D z F z | %100
w: We are|dain- ty lit- tle|fai- ries ev- er|sing- ing, ev- er|danc- ing,|We in-|
 B z A z c z B z | d z B z F z D z | F z C z F z A z | B4 B4- | B2!>(! (A2 G2) F2 | (F2 B2) B4- | %106
w: dulge in our va-|ga- ries In a|fash- ion most en-|tranc- ing,|_ most _ en-|tranc- * ing,|
 B2 (A2 G2) F2!>)! | B4 B4 | z8 | z2!p! DD DDDD | DDDD DDDD | DB, z2 z4 | z8 | z8 | z8 | z8 | z8 |] %117
w: _ most _ en-|tranc- ing||Trip- ping hi- ther, trip- ping|thi- ther, no- bo- dy knows why or|whi- ther.||||||
V:3
 z8 | z8 | z8 | z8 | z8 | z8 | z8 | z8 | z8 | z8 | z8 | z8 | z8 | z8 | z8 | z8 | z8 | z8 | z8 | %19
w: |||||||||||||||||||
 z8 | z8 | z8 | z8 | z8 | z8 | z8 | z8 | z8 | z8 | z8 | z8 | z8 | z4 D, z F, z | %33
w: |||||||||||||We are|
 B, z A, z C z B, z | D z B, z F, z D, z | F, z C, z F, z C, z | D,4 F,4 | z4 D, z F, z | %38
w: dain- ty lit- tle|fai- ries ev- er|sing- ing, ev- er|danc- ing,|We in-|
 B, z A, z C z B, z | D z B, z F, z D, z | F, z C, z F, z C, z | D,4 F,4 | z4 F,2 G,2 | %43
w: dulge in our va-|ga- ries In a|fash- ion most en-|tranc- ing,|If you|
 A,2 D2 C2 B,2 | A,2 _A,2 =A,2 B,2 | A,2 F,2 =E,2 ^C,2 | ^C,4 D,4 | z4 A,2 =B,2 | C2 A,2 B,2 A,2 | %49
w: ask the spe- cial|func- tion of our|ne- ver ceas- ing|mo- tion,|We re-|ply with- out com-|
 B,2 =B,2 C2 D2 | C2 F,2 G,2 B,2 | A,4 F,4 | B,3 B, B,B,B,B, | A,2 F,2 =E,3 E, | F,4 F,4 | z8 | %56
w: punc- tion that we|have- n't a- ny|no- tion,|No, we have- n't a- ny|no- tion, a- ny|no- tion!||
 z8 | z2 G,4 F,2 | E,2 D,2 C,2 G,2 | G,4 ((G,^F,))((G,A,)) | B,4 F,4 | F,4 F,4 | F,4 z4 | z8 | z8 | %65
w: |We must|dance and we must|sing, Round _ a- *|bout our|fai- ry|ring.|||
 z8 | z8 | z8 | z8 | z8 | z8 | z8 | z8 | z8 | z8 | z8 | z8 | z8 | z8 | z8 | z8 | z8 | z8 | z8 | %84
w: |||||||||||||||||||
 z8 | z8 | z8 | z8 | z2 G,4 F,2 | E,2 D,2 C,2 G,2 | G,4 (((G,^F,)))(((G,A,))) | B,4 F,4 | F,4 F,4 | %93
w: ||||We must|dance and we must|sing, Round _ a- *|bout our|fai- ry|
 F,4 z4 | z4!ff! D, z F, z | B, z A, z C z B, z | D z B, z F, z D, z | F, z C, z F, z C, z | %98
w: ring.|We are|dain- ty lit- tle|fai- ries ev- er|sing- ing, ev- er|
 D,4 F,4 | z4 D, z F, z | B, z A, z C z B, z | D z B, z F, z D, z | F, z C, z F, z A, z | %103
w: danc- ing,|We in-|dulge in our va-|ga- ries In a|fash- ion most en-|
 B,4 B,4- | B,2!>(! (A,2 G,2) F,2 |[K:bass] (F,2 B,2) B,4- | B,2 (A,2 G,2) F,2!>)! | B,4 B,4 | z8 | %109
w: tranc- ing,|_ most _ en-|tranc- * ing,|_ most _ en-|tranc- ing||
 z2!p! F,F, F,F,F,F, | F,F,F,F, F,F,F,F, | F,B,, z2 z4 | z8 | z8 | z8 | z8 | z8 |] %117
w: Trip- ping hi- ther, trip- ping|thi- ther, no- bo- dy knows why or|whi- ther.||||||
V:4
 z2 [Af][Ag] [Aa][Ag][Af][Aa] | [Bg][Bf][Af][Ag] [Aa][Ag][Af][Aa] | %2
 [Bg][Bf][Bb][Ba] [Bg][B^f][Bg][B=f] | [B=e][B_e][B=e][Bd] [Bc][Bd][Be][Bg] | %4
 [Af][cc'][cc'][c=e] [cf][cc'][cc'][ce] | [cf][cc'][cc'][c=e] [cf][cc'][cc'][ce] | %6
 f[ac'f'][gbe'][fad'] [egc'][dfb][cea][Bdg] | [Acf][fad'][egc'][dfb] [cea][Bdg][Acf][cea] | %8
 [Bdb] z [FB][FB] [FBd] z [FBd] z | [FBd] z z2 [FBd] z [FBd] z | [FBd] z z2 [Fdf] z [Fdf] z | %11
 [Fdf][Fce] [FBd]2 [^FAc][FBd] [FAe]2 | [FBd]2 z2!8va(! [fd'f'] z [fd'f'] z | %13
 [fd'f'][ec'e'] [dbd']2 [cc'e'][dbd'] [ec'e']2 | [dbd']2!8va)! z2 [Ac] z [Af] z | %15
 [Ac] z [FA] z [=EG] z [GB] z | [FA] z z2 [Ac] z [Af] z | [Ac] z [FA] z [=EG] z [GB] z | %18
 [FA] z [DB][Dc] [Dd][Dc][DB][Dd] | [Ec][EB][DB][Dc] [Dd][Dc][DB][Dd] | [Ec][EB] [EGe]4 [FGd]2 | %21
 [EGc]2 G2 G2 [Gg]2 | [Gg]4 [Gg][^F^f][Gg][Aa] | [Bb]2 [Ff]2 [A,EF][A,EF][A,EF][A,EF] | %24
 [B,DF] z [DB][Dc] [Dd][Dc][DB][Dd] | [Ec][EB][DB][Dc] [Dd][Dc][DB][Dd] | [Ec][EB] [EGe]4 [FGd]2 | %27
 [EGc]2 G2 G2 [Gg]2 | [Gg]4 [Gg][^F^f][Gg][Aa] | [Bb]4 [Ff]4 | %30
 [A,EF][A,EF][A,EF][A,EF] [A,EF][A,EF][A,EF][A,EF] | [B,DF]2 [F,B,D]2 [F,B,D]2 [F,B,D]2 | %32
 [F,B,D]2 [F,B,D]2 [F,B,D]2 [F,B,D]2 | [F,DF]2 [F,DF]2 [F,EF]2 [F,EF]2 | %34
 [F,DF]2 [F,DF]2 [F,DF]2 [F,DF]2 | [E,F,A,]2 [E,F,A,]2 [E,F,A,]2 [E,F,A,]2 | %36
 [D,F,B,]2 [D,F,B,]2 [D,F,B,]2 [D,F,B,]2 | [F,B,D]2 [F,B,D]2 [F,B,D]2 [F,B,D]2 | %38
 [F,DF]2 [F,DF]2 [F,EF]2 [F,EF]2 | [F,DF]2 [F,DF]2 [F,DF]2 [F,DF]2 | %40
 [E,F,A,]2 [E,F,A,]2 [E,F,A,]2 [E,F,A,]2 | [D,F,B,]2 [D,F,B,]2 [D,F,B,]2 [D,F,B,]2 | %42
 [F,DF]2 [F,DF]2 [F,DF]2 [F,DF]2 | [A,DF]2 [A,DF]2 [A,DF]2 [A,DF]2 | %44
 [A,^CG]2 [A,CG]2 [A,CG]2 [A,CG]2 | [A,DF]2 [A,DF]2 [A,^CG]2 [A,CG]2 | %46
 [A,DF]2 [A,DF]2 [A,DF]2 [A,DF]2 | [A,DF]2 z2 A2 =B2 | c2 f2 =e2 d2 | c2 =B2 c2 d2 | c2 a2 g2 =e2 | %51
 c4 f4 | [bd']dfb [bd']f[bd']f | [ac']cfa bgb=e' | [af']c'[fa][gb] [ac']cfa | %55
 b z [DB][Dc] [Dd][Dc][DB][Dd] | [Ec][EB][DB][Dc] [Dd][Dc][DB][Dd] | [Ec][EB] [EGe]4 [FGd]2 | %58
 [EGc]2 G2 G2 [Gg]2 | [Gg]4 [Gg][^F^f][Gg][Aa] | [Bb]4 [Ff]4 | %61
 [A,EF][A,EF][A,EF][A,EF] [A,EF][A,EF][A,EF][A,EF] | [B,DF]4 z4 | [A,EG]2 z2 [CD^F]2 z2 | %64
 [B,DG]2 z2 E4- | E4 D4 | [G,B,E]2 [Begb][Begb] [Begb][Begb][Begb][Begb] | %67
 [Begb][Begb][Begb][Begb] [Begb][Begb][Begb][Begb] | %68
 [Bd_ab][Bdab][Bdab][Bdab] [Bdab][Bdab][Bdab][Bdab] | %69
 [Bd_ab][Bdab][Bdab][Bdab] [Bdab][Bdab][Bdab][Bdab] | %70
 [Bd_ab][Bdab][Begb][Begb] [Begb][Begb][Begb][Begb] | %71
 [ce_ac'][ceac'][ceac'][ceac'] [=Bda=b][Bdab][Bdab][Bdab] | %72
 [Begb][Begb][Begb][Begb] [egb][egb][egb][egb] | %73
 [ce_ac'][ceac'][ceac'][ceac'] [=Bda=b][Bdab][Bdab][Bdab] | %74
 [Begb][Begb][Begb][Begb] [egb][egb][egb][egb] | GA[G=B][Ac] [Bd][df][ce][Bd] | %76
 [ce][df][eg][df] [ce][Bd][Ac][GB] | [FA]G[FA][GB] [Ac][ce][Bd][Ac] | [Bd][ce][df][ce] [Bd]cBA | %79
 B z z2 [D=E][DE][DE][DE] | [^C=E][CE][CE][CE] [CE][CE][CE][CE] | D2 ^F2 A2 [Dd]2 | %82
 [DGd]4 [=EG^c]4 | [D^Fd]2 [F^f]2 [Aa]2 [dd']2 | [d=ed']4 [^ce=e']4 | %85
 [d^fd'] z [df][=eg] [fa][ac'][gb][fa] | [gb]2 [DB][Dc] [Dd][Dc][DB][Dd] | %87
 [Ec][EB][DB][Dc] [Dd][Dc][DB][Dd] | [Ec][EB] [EGe]4 [FGd]2 | [EGc]2 G2 G2 [Gg]2 | %90
 [Gg]4 [Gg][^F^f][Gg][Aa] | [Bb]4 [Ff]4 | [A,EF][A,EF][A,EF][A,EF] [A,EF][A,EF][A,EF][A,EF] | %93
 .[B,DF]2 .[F,B,DF]2 .[F,B,DF]2 .[F,B,DF]2 | .[F,B,DF]2 .[F,B,DF]2 .[F,B,DF]2 .[F,B,DF]2 | %95
 [F,DF]2 [F,DF]2 [F,EF]2 [F,EF]2 | [F,DF]2 [F,DF]2 [F,DF]2 [F,DF]2 | %97
 [E,F,A,]2 [E,F,A,]2 [E,F,A,]2 [E,F,A,]2 | [D,F,B,]2 [D,F,B,]2 [D,F,B,]2 [D,F,B,]2 | %99
 [F,B,D]2 [F,B,D]2 [FBd]2 [Bdf]2 | [dfb]2 [fac']2 [efc']2 [efb]2 | [dfb]2 [dfb]2 [Bdf]2 [FBd]2 | %102
 [Acf]2 [EAc]2 [Acf]2 [cec']2 | [Bdb][GBg][GBg][FBf] [FBf][=EB=e][EBe][_EB_e] | %104
!>(! [EBe][E=B][Ec][Ed] [Ee][E=e][Ef][EA]!>)! | [DB][GBg][GBg][FBf] [FBf][=EB=e][EBe][_EB_e] | %106
 [EBe][E=B][Ec][Ed] [Ee][E=e][Ef][EA] | [DB][eg][df][^c=e] [df][GB_e][FBd][=EBc] | %108
 [FBd][Fc][FB][FA] [FB]FDF |!p! B, z z2 z4 | z4 D2 F2 | [DB]2 [DA]2 [Ec]2 [EB]2 | %112
 [Dd]2 [DB]2 [DF]2 D2 | [DF]2 [DB]2 [Dd]2 [Ff]2 | [Bb]2 z2 z4 | [D,F,B,]2 z2 [D,F,B,]2 z2 | %116
 [D,F,B,]2 z2 z4 |] %117
V:5
 z2 [F,A,^C][F,A,C] [F,A,C][F,A,C][F,A,C][F,A,C] | %1
 [F,B,D][F,B,D][F,A,^C][F,A,C] [F,A,C][F,A,C][F,A,C][F,A,C] | %2
 [F,B,D][F,B,D][F,B,^C][F,B,C] [F,B,C][F,B,C][F,B,C][F,B,C] | %3
 [F,B,C][F,B,C][F,B,C][F,B,C] [F,B,=E][F,B,E][F,B,C][F,B,C] | %4
 [F,A,F][F,A,F][^F,B,=E][F,B,E] [=F,A,F][F,A,F][^F,B,E][F,B,E] | %5
 [F,A,F][F,A,F][^F,B,=E][F,B,E] [=F,A,F][F,A,F][^F,B,E][F,B,E] | %6
 [F,A,F][F,,F,][F,,F,][F,,F,] [F,,F,][F,,F,][F,,F,][F,,F,] | %7
 [F,,F,][F,,F,][F,,F,][F,,F,] [F,,F,][F,,F,][F,,F,][F,,F,] | %8
 [B,,,B,,] z [B,D][B,D] [B,D][B,D][B,D][B,D] | [B,D][B,D][B,D][B,D] [B,D][B,D][B,D][B,D] | %10
 [B,D][B,D][B,D][B,D] [B,D][B,D][B,D][B,D] | [B,D][B,D][B,D][B,D] [B,E][B,E][B,E][B,E] | %12
 [B,D][B,D][B,D][B,D][K:treble] [B,DFB][B,DFB][B,DFB][B,DFB] | %13
 [B,DFB][B,DFB][B,DFB][B,DFB] [B,E^FA][B,EFA][B,EFA][B,EFA] | %14
 [B,DFB][B,DFB][B,DFB][B,DFB][K:bass] [F,C][F,C][F,C][F,C] | %15
 [F,C][F,C][F,C][F,C] [F,C][F,C][F,C][F,C] | [F,C][F,C][F,C][F,C] [F,C][F,C][F,C][F,C] | %17
 [F,C][F,C][F,C][F,C] [F,C][F,C][F,C][F,C] | %18
 [F,C][F,C][D,^F,B,][D,F,B,] [D,F,B,][D,F,B,][D,F,B,][D,F,B,] | %19
 [G,B,][G,B,][D,^F,B,][D,F,B,] [D,F,B,][D,F,B,][D,F,B,][D,F,B,] | %20
 [G,B,][G,B,][C,G,C][C,G,C] [C,G,C][C,G,C][D,G,=B,][D,G,B,] | %21
 [E,G,C][E,G,C][E,G,D][E,G,D] [E,G,C][E,G,C][E,G,C][E,G,C] | %22
 [=E,B,C][E,B,C][E,B,C][E,B,C] [E,B,C][E,B,C][E,B,C][E,B,C] | %23
 [F,B,D][F,B,D][F,B,D][F,B,D] F,,2 z2 | B,, z [_A,B,][A,B,] [G,B,][G,B,][^F,B,][F,B,] | %25
 [G,B,][G,B,][_A,B,][A,B,] [G,B,][G,B,][^F,B,][F,B,] | %26
 [G,B,][G,B,][C,G,C][C,G,C] [C,G,C][C,G,C][D,G,=B,][D,G,B,] | %27
 [E,G,C][E,G,C][E,G,D][E,G,D] [E,G,C][E,G,C][E,G,C][E,G,C] | %28
 [=E,B,C][E,B,C][E,B,C][E,B,C] [E,B,C][E,B,C][E,B,C][E,B,C] | %29
 [F,B,D][F,B,D][F,B,D][F,B,D] [F,B,D][F,B,D][F,B,D][F,B,D] | F,,8 | %31
 [B,,,F,,]2 [B,,,F,,]2 [B,,,F,,]2 [B,,,F,,]2 | [B,,,F,,]2 [B,,,F,,]2 [B,,,F,,]2 [B,,,F,,]2 | %33
 [B,,,F,,]2 [B,,,F,,]2 [B,,,F,,]2 [B,,,F,,]2 | [B,,,F,,]2 [B,,,F,,]2 [B,,,F,,]2 [B,,,F,,]2 | %35
 [B,,,F,,]2 [B,,,F,,]2 [B,,,F,,]2 [B,,,F,,]2 | [B,,,F,,]2 [B,,,F,,]2 [B,,,F,,]2 [B,,,F,,]2 | %37
 [B,,,F,,]2 [B,,,F,,]2 [B,,,F,,]2 [B,,,F,,]2 | [B,,,F,,]2 [B,,,F,,]2 [B,,,F,,]2 [B,,,F,,]2 | %39
 [B,,,F,,]2 [B,,,F,,]2 [B,,,F,,]2 [B,,,F,,]2 | [B,,,F,,]2 [B,,,F,,]2 [B,,,F,,]2 [B,,,F,,]2 | %41
 [B,,,F,,]2 [B,,,F,,]2 [B,,,F,,]2 [B,,,F,,]2 | [B,,,B,,]2 [B,,,B,,]2 [B,,,B,,]2 [B,,,B,,]2 | %43
 [F,,,F,,]2 [F,,,F,,]2 [F,,,F,,]2 [F,,,F,,]2 | [F,,,F,,]2 [F,,,F,,]2 [F,,,F,,]2 [F,,,F,,]2 | %45
 [F,,,F,,]2 [F,,,F,,]2 [F,,,F,,]2 [F,,,F,,]2 | [D,,D,]2 [D,,D,]2 [D,,D,]2 [D,,D,]2 | %47
 [D,,D,]2 [D,F,A,]2 [D,F,A,]2 [D,F,G,=B,]2 | [A,,F,A,C]2 [A,,F,A,C]2 [A,,F,A,C]2 [A,,F,A,C]2 | %49
 [C,=E,B,C]2 [C,E,B,C]2 [C,E,B,C]2 [C,E,B,C]2 | [C,F,A,C]2 [C,F,A,C]2 [C,=E,B,C]2 [C,E,B,C]2 | %51
 F,,2 [C,F,A,C]2 [C,F,A,C]2 [C,F,A,C]2 | [F,,F,] z [F,B,D][F,B,D] [F,B,D][F,B,D][F,B,D][F,B,D] | %53
 [F,A,C][F,A,C][F,A,C][F,A,C] [F,B,C][F,B,C][F,B,C][F,B,C] | %54
 F,,[F,A,C][F,A,C][F,A,C] [F,A,C][F,A,C][E,F,A,C][E,F,A,C] | %55
 [D,F,B,][D,F,B,][D,^F,B,][D,F,B,] [D,F,B,][D,F,B,][D,F,B,][D,F,B,] | %56
 [G,B,][G,B,][D,^F,B,][D,F,B,] [D,F,B,][D,F,B,][D,F,B,][D,F,B,] | %57
 [G,B,][G,B,][C,G,C][C,G,C] [C,G,C][C,G,C][D,G,=B,][D,G,B,] | %58
 [E,G,C][E,G,C][E,G,D][E,G,D] [E,G,C][E,G,C][E,G,C][E,G,C] | %59
 [=E,B,C][E,B,C][E,B,C][E,B,C] [E,B,C][E,B,C][E,B,C][E,B,C] | %60
 [F,B,D][F,B,D][F,B,D][F,B,D] [F,B,D][F,B,D][F,B,D][F,B,D] | F,,8 | B,,4 z4 | C,2 z2 D,2 z2 | %64
 G,,2 z2 z4 | [_A,,F,]2 z2 B,,2 z2 | E,,2 z2 z4 |[K:treble] E2 D2 E2 =E2 | =E2 F2 D4 | %69
 F2 =E2 F2 ^F2 | ^F2 G2 E4 | E2 _A2 G2 F2 | G3 _A B4 | E2 _A2 G2 F2 | G3 _A B4 | %75
 [DF][DF][DF][DF] G,[FG][FG][FG] | C[EG][EG][EG] C[CE][CE][CE] | [CE][CE][CE][CE] F,[EF][EF][EF] | %78
 B,[DF][DF][DF] [B,DF][B,DF][B,DF][B,DF] | %79
 [G,D=E][G,DE][G,DE][G,DE][K:bass] [G,B,][G,B,][G,B,][G,B,] | %80
 [G,A,][G,A,][G,A,][G,A,] [G,A,][G,A,][G,A,][G,A,] | %81
 [^F,A,][F,A,][F,A,][F,A,] [F,A,][F,A,][F,A,][F,A,] | [=E,B,][E,B,][E,B,][E,B,] A,A,A,A, | %83
 [D,A,][D,A,][D,A,][D,A,] [^F,A,D][F,A,D][D,F,A,][D,F,A,] | %84
 [A,,=E,A,][A,,E,A,][A,,E,A,][A,,E,A,] [A,,E,A,][A,,E,A,][A,,E,A,][A,,E,A,] | %85
 [D,^F,A,][D,F,A,][D,D][D,D] [D,D][D,D][D,D][D,D] | %86
 [D,D]2 [D,^F,B,][D,F,B,] [D,F,B,][D,F,B,][D,F,B,][D,F,B,] | %87
 [G,B,][G,B,][D,^F,B,][D,F,B,] [D,F,B,][D,F,B,][D,F,B,][D,F,B,] | %88
 [G,B,][G,B,][C,G,C][C,G,C] [C,G,C][C,G,C][D,G,=B,][D,G,B,] | %89
 [E,G,C][E,G,C][E,G,D][E,G,D] [E,G,C][E,G,C][E,G,C][E,G,C] | %90
 [=E,B,C][E,B,C][E,B,C][E,B,C] [E,B,C][E,B,C][E,B,C][E,B,C] | %91
 [F,B,D][F,B,D][F,B,D][F,B,D] [F,B,D][F,B,D][F,B,D][F,B,D] | F,,8 | %93
 .[B,,,F,,B,,]2 .[B,,,F,,B,,]2 .[B,,,F,,B,,]2 .[B,,,F,,B,,]2 | %94
 [B,,,F,,]2 [B,,,F,,]2 [B,,,F,,]2 [B,,,F,,]2 | [B,,,F,,]2 [B,,,F,,]2 [B,,,F,,]2 [B,,,F,,]2 | %96
 [B,,,F,,]2 [B,,,F,,]2 [B,,,F,,]2 [B,,,F,,]2 | [B,,,F,,]2 [B,,,F,,]2 [B,,,F,,]2 [B,,,F,,]2 | %98
 [B,,,F,,]2 [B,,,F,,]2 [B,,,F,,]2 [B,,,F,,]2 | [B,,,F,,]2 [B,,,F,,]2 [B,,,F,,]2 [B,,,F,,]2 | %100
 [B,,,F,,]2 [B,,,F,,]2 [B,,,F,,]2 [B,,,F,,]2 | [B,,,F,,]2 [B,,,F,,]2 [B,,,F,,]2 [B,,,F,,]2 | %102
 [B,,,F,,]2 [B,,,F,,]2 [B,,,F,,]2 [B,,,F,,]2 | [B,,,F,,]EED D^CC=C | C4 F,,[F,A,][F,A,][F,A,] | %105
 [B,,F,B,]EEE D^CC=C | C4 F,,[F,A,][F,A,][F,A,] | [B,,F,B,]B,B,B, B,B,B,B, | B,ED^C D z z2 | %109
 z2 B,2 A,2 G,2 | F,2 E,2 D,2 C,2 | [B,,F,]2 [B,,F,]2 [B,,F,]2 [B,,F,]2 | %112
 [B,,F,]2 [B,,F,]2 [B,,F,]2 [B,,F,]2 | [B,,F,]2 [B,,F,B,]2 [B,,F,B,]2 [B,,F,B,]2 | %114
 [B,,D,F,B,]2 z2 z4 | [B,,,B,,]2 z2 [B,,,B,,]2 z2 | [B,,,B,,]2 z2 z4 |] %117
V:6
 x8 | x8 | x8 | x8 | x8 | x8 | x8 | x8 | x8 | x8 | x8 | x8 | x4!8va(! x4 | x8 | x2!8va)! x6 | x8 | %16
 x8 | x8 | x8 | x8 | x8 | x8 | x8 | x8 | x8 | x8 | x8 | x8 | x8 | x8 | x8 | x8 | x8 | x8 | x8 | %35
 x8 | x8 | x8 | x8 | x8 | x8 | x8 | x8 | x8 | x8 | x8 | x8 | x8 | x8 | x8 | x8 | x8 | x8 | x8 | %54
 x8 | x8 | x8 | x8 | x8 | x8 | x8 | x8 | x8 | x8 | x8 | C2 z2 [_A,B,]2 z2 | x8 | x8 | x8 | x8 | %70
 x8 | x8 | x8 | x8 | x8 | x8 | x8 | x8 | x8 | x8 | x8 | x8 | x8 | x8 | x8 | x8 | x8 | x8 | x8 | %89
 x8 | x8 | x8 | x8 | x8 | x8 | x8 | x8 | x8 | x8 | x8 | x8 | x8 | x8 | x8 | x8 | x8 | x8 | x8 | %108
 x8 | x8 | x8 | x8 | x8 | x8 | x8 | x8 | x8 |] %117
V:7
 x8 | x8 | x8 | x8 | x8 | x8 | x8 | x8 | x8 | x8 | x8 | x8 | x4[K:treble] x4 | x8 | x4[K:bass] x4 | %15
 x8 | x8 | x8 | x8 | x8 | x8 | x8 | x8 | x8 | x8 | x8 | x8 | x8 | x8 | x8 | x8 | x8 | x8 | x8 | %34
 x8 | x8 | x8 | x8 | x8 | x8 | x8 | x8 | x8 | x8 | x8 | x8 | x8 | x8 | x8 | x8 | x8 | x8 | x8 | %53
 x8 | x8 | x8 | x8 | x8 | x8 | x8 | x8 | x8 | x8 | x8 | x8 | x8 | x8 |[K:treble] x8 | x8 | x8 | %70
 x8 | E8 | x8 | E8 | x8 | x8 | x8 | x8 | x8 | x4[K:bass] x4 | x8 | x8 | x8 | x8 | x8 | x8 | x8 | %87
 x8 | x8 | x8 | x8 | x8 | x8 | x8 | x8 | x8 | x8 | x8 | x8 | x8 | x8 | x8 | x8 | x8 | x8 | x8 | %106
 x8 | x8 | x8 | x8 | x8 | x8 | x8 | x8 | x8 | x8 | x8 |] %117

